z_dist/img/icons/heart.svg

<svg width="25" height="25" viewBox="0 0 25 25" fill="none" xmlns="http://www.w3.org/2000/svg">
<path d="M12.501 3.16119C15.4372 0.524988 19.9746 0.612487 22.8033 3.44618C25.6308 6.28113 25.7283 10.796 23.0983 13.741L12.4985 24.3558L1.90122 13.741C-0.728729 10.796 -0.62998 6.27363 2.19622 3.44618C5.02741 0.616237 9.55608 0.521238 12.501 3.16119ZM21.0334 5.2124C19.1584 3.33494 16.1335 3.25869 14.171 5.02115L12.5023 6.51863L10.8323 5.0224C8.86359 3.25744 5.8449 3.33494 3.96493 5.2149C2.10247 7.07737 2.00872 10.0586 3.72494 12.0285L12.4998 20.8171L21.2746 12.0298C22.9921 10.0586 22.8983 7.08112 21.0334 5.2124Z" fill="white"/>
</svg>

<svg width="25" height="25" fill="none" xmlns="http://www.w3.org/2000/svg"><path d="M12.501 3.161c2.936-2.636 7.474-2.549 10.302.285a7.5 7.5 0 01.295 10.295l-10.6 10.615L1.902 13.74a7.5 7.5 0 0110.6-10.58zm8.532 2.051a4.997 4.997 0 00-6.862-.19l-1.669 1.497-1.67-1.497a4.999 4.999 0 00-6.867.193 4.999 4.999 0 00-.24 6.813l8.775 8.79 8.775-8.788a5 5 0 00-.242-6.818z" fill="#fff"/></svg>
